src/components/icons/felanmalan.svg

<?xml version="1.0" encoding="UTF-8"?>
<svg width="40px" height="40px" viewBox="0 0 40 40" version="1.1" xmlns="http://www.w3.org/2000/svg" xmlns:xlink="http://www.w3.org/1999/xlink">
    <!-- Generator: Sketch 50 (54983) - http://www.bohemiancoding.com/sketch -->
    <title>Fill 1</title>
    <desc>Created with Sketch.</desc>
    <defs></defs>
    <g id="Page-1" stroke="none" stroke-width="1" fill="none" fill-rule="evenodd">
        <g id="Workers-view" transform="translate(-288.000000, -384.000000)" fill="#FFFFFF">
            <g id="Page-1" transform="translate(288.000000, 384.000000)">
                <path d="M34.7845543,34.8563429 C34.3554815,35.2847442 34.3554815,35.9803442 34.7845543,36.4103227 C35.2136271,36.8393549 35.9099239,36.8393549 36.3393122,36.4103227 C36.768385,35.9803442 36.768385,35.2847442 36.3393122,34.8563429 C35.9099239,34.4266798 35.2136271,34.4266798 34.7845543,34.8563429 M37.2343706,37.2358942 C36.8059288,37.6649264 36.2525511,37.8743951 35.6900241,37.8756569 C35.1259195,37.8756569 34.5725418,37.6649264 34.1425226,37.2358942 L12.3181765,15.4101435 C12.114367,15.2063532 11.844619,15.0978333 11.5691921,15.0978333 C11.4436252,15.0978333 11.3193203,15.1199159 11.1978548,15.1656583 C10.443507,15.4442137 9.64751388,15.5845956 8.85183624,15.5845956 C7.12608022,15.5827028 5.41010453,14.9296906 4.09322964,13.6142022 C2.77698575,12.2974519 2.12422721,10.5822696 2.12264973,8.8573078 C2.12264973,8.35035579 2.17943878,7.84340379 2.29333237,7.34780852 L6.2934897,11.3475873 C6.49035839,11.5456992 6.76452329,11.6589511 7.04436709,11.6589511 C7.3235799,11.6589511 7.59648282,11.5456992 7.79492898,11.3475873 L11.3483458,7.79513767 C11.5452145,7.59765668 11.6594236,7.32414866 11.6594236,7.04433134 C11.6594236,6.76419856 11.5452145,6.49069054 11.3483458,6.29384048 L7.3475575,2.29406172 C7.84351517,2.18049438 8.35051516,2.12339524 8.85751514,2.12339524 C10.5829557,2.1246571 12.2983004,2.7770384 13.6158062,4.09441959 C14.9314191,5.41116984 15.5844932,7.12572127 15.5857552,8.85131397 C15.5857552,9.64754723 15.4456755,10.4428341 15.1658317,11.1996343 C15.0216506,11.5892333 15.116299,12.023313 15.4112866,12.3176417 L37.2343706,34.142446 L37.2413115,34.1487553 C37.6665984,34.5777875 37.8751404,35.1298509 37.8764024,35.6923247 C37.8751404,36.2522748 37.6653364,36.8056002 37.2343706,37.2358942 M38.7377029,32.6424106 L38.7276071,32.6335776 L17.3720862,11.2762922 C17.5957719,10.4844755 17.70935,9.66742152 17.70935,8.85131397 C17.710612,6.5897465 16.8442635,4.31903055 15.116299,2.59280693 C13.3902275,0.865636907 11.1186657,-0.0012604838 8.85751514,1.3755765e-06 C7.51729365,1.3755765e-06 6.17612567,0.302216696 4.94506534,0.908855591 C4.63903548,1.05933232 4.42260611,1.35176823 4.36613256,1.68647643 C4.31029,2.02370835 4.42260611,2.37040421 4.66269758,2.61141935 L9.09539815,7.04433134 L7.04436709,9.09548376 L2.61103553,4.6622563 C2.37094407,4.42187209 2.0232689,4.31082847 1.68758254,4.36540389 C1.35126519,4.42187209 1.0584861,4.63891191 0.907995132,4.94522827 C0.301298819,6.17585663 1.37871089e-06,7.51595128 1.37871089e-06,8.8573078 C-0.0012606001,11.1179289 0.863825873,13.3895912 2.59179036,15.1167612 C4.31849286,16.8423539 6.59005472,17.7089359 8.85183624,17.707674 C9.66833653,17.707674 10.4845213,17.5959994 11.2760975,17.371073 L32.6413988,38.7384533 C33.4821921,39.5769588 34.589894,40.0012591 35.6900241,39.9999972 L35.6922325,39.9999972 C36.7914161,39.9999972 37.8994335,39.5769588 38.7370719,38.7384533 C39.5753413,37.8990013 40.0012592,36.7904579 39.9999972,35.6923247 C40.0012592,34.5916679 39.5772343,33.4818626 38.7377029,32.6424106" id="Fill-1"></path>
            </g>
        </g>
    </g>
</svg>

<svg width="40" height="40" xmlns="http://www.w3.org/2000/svg"><path d="M34.785 34.856a1.099 1.099 0 1 0 1.554 1.554 1.099 1.099 0 0 0-1.554-1.554m2.45 2.38a2.17 2.17 0 0 1-1.545.64c-.564 0-1.117-.211-1.547-.64L12.318 15.41a1.058 1.058 0 0 0-1.12-.244 6.778 6.778 0 0 1-2.346.419 6.709 6.709 0 0 1-4.759-1.97 6.702 6.702 0 0 1-1.97-4.758c0-.507.056-1.014.17-1.51l4 4c.197.199.472.312.751.312.28 0 .552-.113.75-.311l3.554-3.553c.197-.197.311-.47.311-.75s-.114-.554-.31-.751l-4.001-4a6.768 6.768 0 0 1 1.51-.17 6.7 6.7 0 0 1 4.758 1.97 6.701 6.701 0 0 1 1.97 4.757 6.77 6.77 0 0 1-.42 2.349c-.144.39-.05.823.245 1.118l21.823 21.824.007.007c.426.429.634.98.635 1.543a2.17 2.17 0 0 1-.642 1.544m1.504-4.594l-.01-.008-21.356-21.358a8.926 8.926 0 0 0 .337-2.425 8.822 8.822 0 0 0-2.593-6.258A8.827 8.827 0 0 0 8.858 0a8.85 8.85 0 0 0-3.913.909c-.306.15-.522.443-.579.777-.056.338.057.684.297.925l4.432 4.433-2.05 2.051L2.61 4.662a1.07 1.07 0 0 0-.923-.297c-.337.057-.63.274-.78.58A8.843 8.843 0 0 0 0 8.857a8.826 8.826 0 0 0 2.592 6.26 8.834 8.834 0 0 0 6.26 2.59 8.87 8.87 0 0 0 2.424-.336l21.365 21.367A4.31 4.31 0 0 0 35.69 40h.002a4.307 4.307 0 0 0 3.045-7.358" fill="#FFF" fill-rule="evenodd"/></svg>
